X:298
T: Reigen (3-99), S. 270
N: P1073V
O: Lothringen
S: PINCK, Louis: Verklingende Weisen, Bd3, Metz 1933]
N: 2. Melodie stammt von der 2. Strophe
R: Tanzlied?]
M: 3/4
L: 1/8
K: G
G2 | G3FG2 | A2A2AA | D3DD2 | A4
B2 | G3FG2 | AAA2B2 | BBB2A2 | G4
G2 | G3FG2 | A2A2d2 | d3cd2 | A3B
B2 | G3FG2 | A2A2B2 | B3BA2 | G4

@@@ Tune index: 7848
